assets/svg/2716.svg

<svg xmlns="http://www.w3.org/2000/svg" viewBox="0 0 64 64" enable-background="new 0 0 64 64"><path d="m49.15 3.414c-5.712 5.716-11.434 11.433-17.14 17.15-5.716-5.714-11.432-11.431-17.15-17.15-6.614-6.611-16.862 3.642-10.251 10.253 5.714 5.711 11.433 11.431 17.14 17.14-5.711 5.714-11.429 11.433-17.14 17.15-6.611 6.609 3.642 16.859 10.251 10.252 5.714-5.717 11.43-11.433 17.15-17.15 5.716 5.717 11.428 11.431 17.14 17.15 6.612 6.608 16.861-3.643 10.255-10.251-5.717-5.717-11.433-11.431-17.15-17.15 5.718-5.716 11.434-11.433 17.15-17.15 6.606-6.609-3.643-16.862-10.255-10.251" fill="#405866" transform="translate(.542.542)"/></svg>

<?xml version="1.0" encoding="UTF-8" standalone="no"?>
<!-- Generator: Adobe Illustrator 16.0.0, SVG Export Plug-In . SVG Version: 6.00 Build 0)  -->

<svg
   xmlns:dc="http://purl.org/dc/elements/1.1/"
   xmlns:cc="http://creativecommons.org/ns#"
   xmlns:rdf="http://www.w3.org/1999/02/22-rdf-syntax-ns#"
   xmlns:svg="http://www.w3.org/2000/svg"
   xmlns="http://www.w3.org/2000/svg"
   xmlns:sodipodi="http://sodipodi.sourceforge.net/DTD/sodipodi-0.dtd"
   xmlns:inkscape="http://www.inkscape.org/namespaces/inkscape"
   version="1.1"
   id="Layer_1"
   x="0px"
   y="0px"
   width="64px"
   height="64px"
   viewBox="0 0 64 64"
   enable-background="new 0 0 64 64"
   xml:space="preserve"
   inkscape:version="0.48.5 r10040"
   sodipodi:docname="2716.svg"
   inkscape:export-filename="D:\TESTINGEMOJI\SVGTEST\2716.png"
   inkscape:export-xdpi="90"
   inkscape:export-ydpi="90"><metadata
   id="metadata3005"><rdf:RDF><cc:Work
       rdf:about=""><dc:format>image/svg+xml</dc:format><dc:type
         rdf:resource="http://purl.org/dc/dcmitype/StillImage" /><dc:title></dc:title></cc:Work></rdf:RDF></metadata><defs
   id="defs3003" /><sodipodi:namedview
   pagecolor="#ffffff"
   bordercolor="#666666"
   borderopacity="1"
   objecttolerance="10"
   gridtolerance="10"
   guidetolerance="10"
   inkscape:pageopacity="0"
   inkscape:pageshadow="2"
   inkscape:window-width="640"
   inkscape:window-height="480"
   id="namedview3001"
   showgrid="false"
   inkscape:zoom="3.6875"
   inkscape:cx="32"
   inkscape:cy="32"
   inkscape:window-x="462"
   inkscape:window-y="292"
   inkscape:window-maximized="0"
   inkscape:current-layer="Layer_1" />
<g
   id="g2997"
   transform="translate(0.54237288,0.54237288)">
	<path
   d="M 49.145,3.414 C 43.433,9.13 37.711,14.847 32.001,20.561 26.285,14.847 20.569,9.13 14.855,3.414 8.241,-3.197 -2.007,7.056 4.604,13.667 10.318,19.378 16.037,25.098 21.748,30.811 16.037,36.525 10.319,42.244 4.604,47.957 -2.007,54.566 8.246,64.816 14.855,58.209 20.569,52.492 26.285,46.776 32.001,41.062 37.717,46.779 43.429,52.493 49.145,58.209 55.757,64.817 66.006,54.566 59.4,47.958 53.683,42.241 47.967,36.527 42.25,30.811 47.968,25.095 53.684,19.378 59.4,13.665 66.006,7.056 55.757,-3.197 49.145,3.414 z"
   id="path2999"
   inkscape:connector-curvature="0"
   style="fill:#405866" />
</g>
</svg>
